packages/icons/src/emoji/svg/bank.svg

<svg width="120" height="120" viewBox="0 0 120 120" fill="none" xmlns="http://www.w3.org/2000/svg">
<g clip-path="url(#clip0_212_594)">
<path d="M16.1348 9.45947H106.069V42.947H16.1348V9.45947Z" fill="white"/>
<path d="M16.1348 43.8843H106.069V120H16.1348V43.8843Z" fill="#006CA2"/>
<path d="M27.741 28.903C26.8785 28.903 26.1378 28.9498 26.1378 30.178C26.1378 30.778 26.1097 31.3686 26.1472 31.9686C26.1566 32.2967 26.2035 32.6623 26.3628 32.9436C26.5316 33.2342 26.7285 33.2342 27.0003 33.2717C27.3566 33.328 27.6566 33.3373 28.0222 33.3373C28.8566 33.3373 29.7097 32.803 30.0097 31.9592C30.1597 31.5092 30.1691 30.9842 29.9441 30.3936C29.5503 29.4373 28.5847 28.903 27.741 28.903ZM50.2316 27.403L50.2035 27.2811C50.0347 26.5873 49.8753 25.8936 49.716 25.1998C49.5941 24.9655 49.5097 24.628 49.2003 24.7123C48.9847 24.7686 48.9003 25.0405 48.8441 25.1905L48.7785 25.2655C48.6285 26.2217 48.4597 27.178 48.2816 28.1342L48.2628 28.2373L48.2066 28.4717C48.1785 28.753 48.141 29.0623 48.2347 29.3342L48.4597 29.6155L48.8253 29.7373L49.0785 29.8311H49.9503C51.0097 29.5217 50.3628 28.228 50.2597 27.4873L50.2316 27.403ZM27.0191 23.428C27.8535 23.5967 28.941 23.3061 29.4285 22.3498C29.7847 21.6467 29.7191 20.8123 29.2972 20.1842L29.1472 19.978C28.8097 19.5936 28.3222 19.4905 27.8816 19.4717C27.441 19.4436 26.9347 19.4717 26.5222 19.6873L26.316 19.9217C26.2035 20.1373 26.1097 20.428 26.0628 20.7373C25.941 21.478 26.0347 22.3686 26.3253 22.9123C26.4847 23.203 26.7285 23.3717 27.0191 23.428Z" fill="#78A3AD"/>
<path d="M103.275 2.6062H16.725C11.9625 2.6062 8.0625 6.5062 8.0625 11.2687V120H45.4875V101.606C45.4875 98.9531 47.6531 96.7781 50.3062 96.7781H69.6656C72.3187 96.7781 74.4938 98.9531 74.4938 101.606V120H111.919V11.2687C111.938 6.5062 108.038 2.6062 103.275 2.6062ZM33.1781 85.9125H20.9812V71.1937H33.1781V85.9125ZM33.1781 63.3937H20.9812V48.6749H33.1781V63.3937ZM36.6844 33.4312C35.9062 35.2687 34.5281 36.8531 32.7656 37.6124C30.6844 38.5125 28.4344 38.6156 26.2219 38.5593C24.9656 38.5312 23.2594 38.625 22.1812 37.8562C20.1094 36.3656 20.4844 34.2843 20.4562 31.9968C20.4281 29.9531 20.4281 27.9093 20.3625 25.875C20.3062 23.9906 20.3344 22.1531 20.3719 20.3062C20.4 18.9468 20.0344 17.1468 20.9719 16.0218C22.5375 14.1281 25.5187 14.0812 27.7219 14.25C31.3125 14.5312 35.7281 16.3031 35.25 21.0749C35.1656 21.7781 34.95 22.5187 34.5938 23.1C34.2188 23.7187 33.4406 24.4593 33.8063 25.3125C34.2281 26.2781 35.5031 26.8031 36.0844 27.7406C36.7875 28.8843 37.1156 30 37.1344 31.0499C37.1531 31.875 36.9938 32.6906 36.6844 33.4312ZM55.0219 85.9125H42.825V71.1937H55.0219V85.9125ZM55.0219 63.3937H42.825V48.6749H55.0219V63.3937ZM55.9875 38.4656C54.9469 38.7281 52.8844 38.5125 52.4063 37.3875C51.7406 35.8125 52.05 33.9843 49.8094 33.6937C48.7594 33.5531 47.2406 34.0125 46.8 35.0531C46.35 36.1406 46.7063 37.4812 45.5438 38.2218C44.7563 38.7281 43.65 38.8031 42.7406 38.6531C40.6969 38.325 40.2094 36.8156 40.5094 34.9406C40.6594 34.0312 40.8563 33.1218 41.0906 32.2218C41.5406 30.3937 42.1031 28.5843 42.5156 26.7562C42.9469 24.8437 43.2656 22.9125 43.7906 21.0093C44.7094 17.625 46.3875 13.1625 50.85 14.6625C52.7625 15.3 53.2969 17.4187 53.9156 19.1062C54.8156 21.5437 55.1719 24.225 55.7344 26.7562C56.1469 28.5843 56.7 30.3937 57.1594 32.2218C57.4219 33.3093 57.9375 34.9406 57.7875 36.2812C57.675 37.3125 57.1969 38.1468 55.9875 38.4656ZM76.8656 85.9125H64.6688V71.1937H76.8656V85.9125ZM76.8656 63.3937H64.6688V48.6749H76.8656V63.3937ZM79.9781 31.6687C79.9594 32.3906 79.9219 33.2437 79.8 34.0968C79.6219 35.4187 79.1156 37.6593 77.475 37.8187C76.9406 37.875 76.3594 37.8281 75.8906 37.6875C73.275 36.9187 72.825 34.0968 71.2687 32.1656C70.8656 31.6687 70.5844 31.1437 70.275 30.6093C69.9188 30 69.2062 28.8 68.4 28.6968C67.4062 28.5656 67.6313 29.9531 67.6406 30.6375C67.6688 32.7 68.3531 37.0968 65.9719 38.1375C62.4375 39.6843 61.5563 34.8843 61.5 32.6906C61.425 29.9531 61.1156 27.2156 61.1156 24.4781C61.1156 22.3406 60.8813 17.8031 62.7563 16.2562C65.7938 13.7531 67.6125 16.3781 69.5438 18.6187C70.425 19.65 70.9969 20.7093 71.7375 21.8437C72.1781 22.5187 73.3406 23.25 73.6969 22.1625C74.2969 20.3812 73.6688 18.15 74.6063 16.5C75.7594 14.4843 79.05 15.0187 79.9125 17.0343C80.0719 17.4 80.1188 18.0187 80.1656 18.4406C80.6719 22.8 80.0531 27.2718 79.9781 31.6687ZM98.7188 85.9125H86.5125V71.1937H98.7188V85.9125ZM98.7188 63.3937H86.5125V48.6749H98.7188V63.3937ZM100.678 36.5343C100.144 37.6968 98.6156 38.8499 97.3125 38.3624C95.8313 37.8093 95.0906 36.3 94.5281 34.9218C93.9938 33.5906 93.3562 32.1656 92.1375 31.2937C91.5188 30.8437 91.0031 31.0875 90.5813 31.5562C88.9031 33.3843 91.6219 37.1343 88.8281 38.3624C88.1719 38.6437 87.225 38.6156 86.5219 38.5406C83.1188 38.1843 83.8313 34.7531 83.8125 32.2406C83.7938 30.0843 83.7938 27.9468 83.7188 25.8375C83.6531 23.9062 83.6906 22.0499 83.7375 20.2031C83.7469 19.4156 83.8031 18.7593 83.8969 17.9812C84.0094 16.9968 83.925 15.8625 84.8906 15.2156C85.7906 14.6156 87.0563 14.7656 88.0406 15.0281C89.3344 15.375 89.3344 15.8718 89.7656 17.1C90.0844 18.0281 90.1219 19.1062 90.1406 20.0906C90.1594 20.6718 90.2625 21.4781 90.9844 21.4874C91.725 21.4874 92.3531 20.2312 92.775 19.7437C93.1781 19.2656 93.6375 18.8343 93.8812 18.2625C94.7344 16.3312 97.4906 14.4843 99.45 16.3031C101.147 17.8687 99.8438 20.0531 98.7 21.5062C97.6594 22.8375 95.8313 24.3093 96.4969 26.2031C97.3031 28.5281 99.0188 30.5437 100.003 32.8031C100.312 33.4968 100.763 34.4531 100.856 35.3437C100.875 35.7562 100.847 36.1687 100.678 36.5343Z" fill="#78A3AD"/>
</g>
<defs>
<clipPath id="clip0_212_594">
<rect width="120" height="120" fill="white"/>
</clipPath>
</defs>
</svg>

<svg xmlns="http://www.w3.org/2000/svg" fill="none" aria-hidden="true" data-slot="icon" viewBox="0 0 120 120"><g clip-path="url(#a)"><path fill="#fff" d="M16.135 9.46h89.934v33.487H16.135z"/><path fill="#006CA2" d="M16.135 43.884h89.934V120H16.135z"/><path fill="#78A3AD" d="M27.741 28.903c-.863 0-1.603.047-1.603 1.275 0 .6-.028 1.19.01 1.79.009.329.055.694.215.976.169.29.366.29.637.328a6 6 0 0 0 1.022.065c.835 0 1.688-.534 1.988-1.378.15-.45.16-.975-.066-1.565-.394-.957-1.36-1.491-2.203-1.491m22.49-1.5-.028-.122q-.25-1.04-.487-2.081c-.122-.235-.206-.572-.516-.488-.215.057-.3.329-.356.479l-.066.075q-.227 1.434-.496 2.868l-.02.103-.055.235c-.029.281-.066.59.028.862l.225.282.365.121.253.094h.872c1.06-.31.413-1.603.31-2.344zM27.02 23.428c.835.169 1.922-.122 2.41-1.078a2.15 2.15 0 0 0-.132-2.166l-.15-.206c-.337-.384-.825-.488-1.265-.506-.441-.028-.947 0-1.36.215l-.206.235a2.7 2.7 0 0 0-.253.815c-.122.741-.028 1.632.262 2.175.16.291.404.46.694.516"/><path fill="#78A3AD" d="M103.275 2.606h-86.55c-4.763 0-8.663 3.9-8.663 8.663V120h37.426v-18.394c0-2.653 2.165-4.828 4.818-4.828h19.36c2.653 0 4.828 2.175 4.828 4.828V120h37.425V11.269c.019-4.763-3.881-8.663-8.644-8.663M33.178 85.913H20.981v-14.72h12.197zm0-22.52H20.981V48.676h12.197zm3.506-29.962c-.778 1.838-2.156 3.422-3.918 4.181-2.082.9-4.332 1.004-6.544.947-1.256-.028-2.963.066-4.04-.703-2.073-1.49-1.698-3.572-1.726-5.86-.028-2.043-.028-4.087-.093-6.121-.057-1.884-.029-3.722.009-5.569.028-1.36-.338-3.16.6-4.284 1.566-1.894 4.547-1.94 6.75-1.772 3.59.281 8.006 2.053 7.528 6.825-.084.703-.3 1.444-.656 2.025-.375.619-1.153 1.36-.788 2.212.422.966 1.697 1.491 2.278 2.429.703 1.143 1.032 2.259 1.05 3.309.02.825-.14 1.64-.45 2.381m18.338 52.482H42.825v-14.72h12.197zm0-22.52H42.825V48.676h12.197zm.965-24.927c-1.04.262-3.103.047-3.58-1.078-.666-1.575-.357-3.404-2.598-3.694-1.05-.14-2.568.319-3.009 1.36-.45 1.087-.094 2.427-1.256 3.168-.788.506-1.894.581-2.803.431-2.044-.328-2.532-1.837-2.232-3.712.15-.91.347-1.82.582-2.72.45-1.827 1.012-3.637 1.425-5.465.43-1.912.75-3.843 1.275-5.747.918-3.384 2.597-7.847 7.059-6.347 1.913.638 2.447 2.757 3.066 4.444.9 2.438 1.256 5.119 1.818 7.65.413 1.828.966 3.638 1.425 5.466.263 1.087.779 2.719.629 4.06-.113 1.03-.591 1.865-1.8 2.184m20.879 47.446H64.669V71.194h12.197zm0-22.518H64.669v-14.72h12.197zm3.112-31.725c-.019.722-.056 1.575-.178 2.428-.178 1.322-.684 3.562-2.325 3.722a4.2 4.2 0 0 1-1.584-.132c-2.616-.768-3.066-3.59-4.622-5.521-.403-.497-.685-1.022-.994-1.557-.356-.609-1.069-1.809-1.875-1.912-.994-.131-.769 1.256-.76 1.94.029 2.063.713 6.46-1.668 7.5-3.534 1.547-4.416-3.253-4.472-5.446-.075-2.738-.384-5.475-.384-8.213 0-2.137-.235-6.675 1.64-8.222 3.038-2.503 4.856.122 6.788 2.363.881 1.031 1.453 2.09 2.194 3.225.44.675 1.603 1.406 1.959.319.6-1.782-.028-4.013.91-5.663 1.152-2.016 4.443-1.481 5.305.534.16.366.207.985.254 1.407.506 4.359-.113 8.83-.188 13.228m18.74 54.244H86.514v-14.72H98.72zm0-22.52H86.514V48.676H98.72zm1.96-26.859c-.534 1.163-2.062 2.316-3.365 1.828-1.482-.553-2.222-2.062-2.785-3.44-.534-1.331-1.172-2.756-2.39-3.628-.62-.45-1.135-.207-1.557.262-1.678 1.828 1.04 5.578-1.753 6.806-.656.282-1.603.254-2.306.179-3.403-.357-2.69-3.788-2.71-6.3-.018-2.157-.018-4.294-.093-6.404-.066-1.93-.028-3.787.019-5.634a19 19 0 0 1 .159-2.222c.112-.984.028-2.119.994-2.765.9-.6 2.165-.45 3.15-.188 1.293.347 1.293.844 1.725 2.072.318.928.356 2.006.375 2.99.018.582.121 1.388.843 1.397.741 0 1.37-1.256 1.791-1.743.403-.478.862-.91 1.106-1.482.853-1.93 3.61-3.778 5.569-1.959 1.697 1.566.394 3.75-.75 5.203-1.04 1.331-2.869 2.803-2.203 4.697.806 2.325 2.522 4.34 3.506 6.6.309.694.76 1.65.853 2.54.019.413-.009.826-.178 1.191"/></g><defs><clipPath id="a"><path fill="#fff" d="M0 0h120v120H0z"/></clipPath></defs></svg>
